assets/icons/24px/outline/square-and-pencil-24px.svg

<svg width="24" height="24" viewBox="0 0 24 24" fill="none" xmlns="http://www.w3.org/2000/svg">
<path d="M10.2929 12.2929C9.90237 12.6834 9.90237 13.3166 10.2929 13.7071C10.6834 14.0976 11.3166 14.0976 11.7071 13.7071L10.2929 12.2929ZM18.7071 6.7071L19.4142 6L18 4.58578L17.2929 5.29289L18.7071 6.7071ZM19.2929 3.29289L18.5858 4L20 5.41421L20.7071 4.70711L19.2929 3.29289ZM21.7071 3.70711C22.0976 3.31658 22.0976 2.68342 21.7071 2.29289C21.3166 1.90237 20.6834 1.90237 20.2929 2.29289L21.7071 3.70711ZM11.7071 13.7071L18.7071 6.7071L17.2929 5.29289L10.2929 12.2929L11.7071 13.7071ZM20.7071 4.70711L21.7071 3.70711L20.2929 2.29289L19.2929 3.29289L20.7071 4.70711Z" fill="white"/>
<path d="M10 7H7.00001C5.11439 7 4.17158 7 3.58579 7.58579C3.00001 8.17157 3.00001 9.11438 3.00001 11L3 17C3 18.8856 3 19.8284 3.58579 20.4142C4.17157 21 5.11438 21 7 21H13C14.8856 21 15.8284 21 16.4142 20.4142C17 19.8284 17 18.8856 17 17V14" stroke="white" stroke-width="2" stroke-linecap="round"/>
</svg>

<svg width="24" height="24" fill="none" xmlns="http://www.w3.org/2000/svg"><path d="M10.293 12.293a1 1 0 1 0 1.414 1.414l-1.414-1.414zm8.414-5.586L19.414 6 18 4.586l-.707.707 1.414 1.414zm.586-3.414L18.586 4 20 5.414l.707-.707-1.414-1.414zm2.414.414a1 1 0 0 0-1.414-1.414l1.414 1.414zm-10 10l7-7-1.414-1.414-7 7 1.414 1.414zm9-9l1-1-1.414-1.414-1 1 1.414 1.414z" fill="#fff"/><path d="M10 7H7c-1.886 0-2.828 0-3.414.586C3 8.172 3 9.114 3 11v6c0 1.886 0 2.828.586 3.414C4.172 21 5.114 21 7 21h6c1.886 0 2.828 0 3.414-.586C17 19.828 17 18.886 17 17v-3" stroke="#fff" stroke-width="2" stroke-linecap="round"/></svg>
